icons/regex.svg

<svg width="14" height="14" viewBox="0 0 14 14" fill="none" xmlns="http://www.w3.org/2000/svg">
<path d="M8.66725 2.25C8.77093 2.25 8.86766 2.28092 8.94752 2.33496C9.08053 2.42483 9.16818 2.57749 9.16822 2.75V4.38281L10.5823 3.56641C10.672 3.51463 10.7713 3.49411 10.8674 3.50098C10.8995 3.50323 10.9313 3.50833 10.9622 3.5166C11.0549 3.54151 11.1402 3.59339 11.2063 3.66797C11.2284 3.69284 11.2486 3.72008 11.2659 3.75C11.2831 3.77992 11.2964 3.81122 11.3069 3.84277C11.3174 3.8743 11.3254 3.90624 11.3294 3.93848C11.3373 4.00296 11.3323 4.06806 11.3157 4.12988C11.3074 4.16068 11.2965 4.19096 11.2825 4.21973C11.2544 4.27735 11.2149 4.32999 11.1653 4.37402C11.1404 4.39613 11.1122 4.41629 11.0823 4.43359L9.66822 5.25L11.0823 6.06641C11.2615 6.16992 11.3533 6.36818 11.3294 6.56152C11.3214 6.62605 11.3004 6.69014 11.2659 6.75C11.1969 6.86939 11.0857 6.95023 10.9622 6.9834C10.9313 6.99167 10.8995 6.99677 10.8674 6.99902C10.7713 7.00588 10.672 6.98535 10.5823 6.93359L9.16822 6.11621V7.75C9.16818 7.99177 8.99596 8.19381 8.76783 8.24023C8.73567 8.2468 8.70231 8.24993 8.66822 8.25L8.66725 8.24902V8.25C8.39126 8.24986 8.16731 8.026 8.16725 7.75V6.11621L6.75221 6.93359C6.66274 6.98512 6.56387 7.00578 6.46803 6.99902C6.43601 6.9968 6.4042 6.99164 6.3733 6.9834C6.31164 6.96689 6.25317 6.93839 6.20143 6.89941C6.14932 6.86024 6.10428 6.80998 6.06959 6.75C5.93172 6.51092 6.01321 6.20446 6.25221 6.06641L7.66529 5.25L6.25221 4.43359C6.16262 4.38186 6.09513 4.30625 6.05299 4.21973C5.99668 4.10438 5.98582 3.96881 6.0276 3.84277C6.0381 3.81117 6.05231 3.77997 6.06959 3.75C6.10413 3.69025 6.14862 3.6397 6.20045 3.60059C6.25236 3.56137 6.31138 3.53317 6.3733 3.5166C6.40421 3.50836 6.43601 3.50321 6.46803 3.50098L6.56471 3.50391C6.6289 3.5119 6.69266 3.53212 6.75221 3.56641L8.16725 4.38281V2.75C8.16726 2.59627 8.2377 2.45989 8.34693 2.36816C8.43375 2.29511 8.54495 2.25013 8.66725 2.25Z" fill="red"/>
<path d="M4.16754 9.24997C4.71983 9.24997 5.16754 9.69768 5.16754 10.25C5.16754 10.8023 4.71983 11.25 4.16754 11.25C3.61526 11.25 3.16754 10.8023 3.16754 10.25C3.16754 9.69768 3.61526 9.24997 4.16754 9.24997Z" stroke="red" stroke-linecap="round" stroke-linejoin="round"/>
</svg>

<svg xmlns="http://www.w3.org/2000/svg" width="14" height="14" fill="none" viewBox="0 0 14 14"><path fill="red" d="M8.667 2.25a.5.5 0 0 1 .501.5v1.633l1.414-.817a.5.5 0 0 1 .684.184.506.506 0 0 1-.1.624.5.5 0 0 1-.084.06l-1.414.816 1.414.816a.502.502 0 0 1-.5.868l-1.414-.818V7.75a.5.5 0 0 1-.5.5v-.001.001a.5.5 0 0 1-.5-.5V6.116l-1.416.818a.5.5 0 0 1-.682-.184.5.5 0 0 1 .182-.684l1.413-.816-1.413-.816a.5.5 0 0 1-.182-.684.5.5 0 0 1 .398-.249l.097.003a.5.5 0 0 1 .187.062l1.415.817V2.75c0-.154.07-.29.18-.382a.5.5 0 0 1 .32-.118"/><path stroke="red" stroke-linecap="round" stroke-linejoin="round" d="M4.168 9.25a1 1 0 1 1 0 2 1 1 0 0 1 0-2"/></svg>
